X: 18423
T: Hunter's Second Purse, The
R: jig
M: 6/8
K: Aminor
g|:eAA AGE|GAFGED|cBc ege|def ged|
eAA AGE|GAFGED|cBc ege|dBG A2g:|
|:eaa age|gaf ged|cBc ege|def ged|
eaa age|gaf ged|cBc e3|dBG A2g:|

